src/assets/images/prototype/produits-labellises/4-wc.svg

<svg width="233" height="734" viewBox="0 0 233 734" fill="none" xmlns="http://www.w3.org/2000/svg">
<path d="M218.538 684.224C216.692 705.76 201.361 724.475 193.926 731.141L11.6435 731.141C-3.73904 731.141 4.72139 203.521 11.6435 192.753C18.5656 181.986 29.3334 174.294 56.2528 163.527C77.7883 154.912 106.759 127.121 118.552 114.303L178.544 65.8477C183.671 78.41 198.848 112.918 218.538 150.451C243.15 197.368 220.845 657.305 218.538 684.224Z" fill="white" stroke="#81EC40" stroke-width="5"/>
<path d="M110.851 3C117.517 6.58925 132.695 16.5366 140.078 27.612L97.0071 49.9166C99.4683 43.1483 91.3669 24.5355 87.0085 16.0751L110.851 3Z" fill="white" stroke="#81EC40" stroke-width="5"/>
<path d="M154.162 21.4687L187.004 73.5384L113.168 116.609L84.7103 57.3867C84.7103 57.3867 103.864 37.3867 118.436 29.4277C133.008 21.4687 154.162 21.4687 154.162 21.4687Z" fill="white" stroke="#81EC40" stroke-width="5"/>
</svg>

<svg width="233" height="734" fill="none" xmlns="http://www.w3.org/2000/svg"><path d="M218.538 684.224c-1.846 21.536-17.177 40.251-24.612 46.917H11.644c-15.383 0-6.923-527.62 0-538.388 6.922-10.767 17.69-18.459 44.609-29.226 21.535-8.615 50.506-36.406 62.299-49.224l59.992-48.455c5.127 12.562 20.304 47.07 39.994 84.603 24.612 46.917 2.307 506.854 0 533.773zM110.851 3c6.666 3.59 21.844 13.537 29.227 24.612l-43.07 22.305c2.46-6.769-5.641-25.382-10-33.842L110.852 3z" fill="#fff" stroke="#81EC40" stroke-width="5"/><path d="M154.162 21.469l32.842 52.07-73.836 43.07L84.71 57.387s19.154-20 33.726-27.96c14.572-7.958 35.726-7.958 35.726-7.958z" fill="#fff" stroke="#81EC40" stroke-width="5"/></svg>
